teeny/outline/tailwind.svg

<svg width="15" height="15" viewBox="0 0 15 15" fill="none" xmlns="http://www.w3.org/2000/svg">
<path fill-rule="evenodd" clip-rule="evenodd" d="M7.5 3C5.63333 3 4.46667 4 4 5.99999C4.7 4.99999 5.51667 4.625 6.45 4.87499C6.98252 5.01763 7.36314 5.43155 7.78443 5.88974C8.47074 6.63613 9.26506 7.49999 11 7.49999C12.8667 7.49999 14.0333 6.49999 14.5 4.5C13.8 5.49999 12.9833 5.87499 12.05 5.62499C11.5175 5.48235 11.1369 5.06844 10.7156 4.61025C10.0293 3.86386 9.23494 3 7.5 3ZM4 7.49999C2.13333 7.49999 0.966667 8.49998 0.5 10.5C1.2 9.49998 2.01667 9.12498 2.95 9.37498C3.48252 9.51762 3.86314 9.93154 4.28443 10.3897C4.97074 11.1361 5.76506 12 7.5 12C9.36667 12 10.5333 11 11 8.99998C10.3 9.99998 9.48333 10.375 8.55 10.125C8.01748 9.98234 7.63686 9.56843 7.21557 9.11023C6.52926 8.36385 5.73494 7.49999 4 7.49999Z" stroke="black" stroke-linejoin="round"/>
</svg>

<svg viewBox="0 0 15 15" xmlns="http://www.w3.org/2000/svg"><path fill="none" fill-rule="evenodd" stroke="#000" stroke-linejoin="round" d="M7.5 3C5.63 3 4.46 4 4 5.99c.7-1 1.51-1.38 2.45-1.13 .53.14.91.55 1.33 1.01 .68.74 1.48 1.61 3.21 1.61 1.86 0 3.03-1 3.5-3 -.7.99-1.52 1.37-2.45 1.12 -.54-.15-.92-.56-1.34-1.02 -.69-.75-1.49-1.62-3.22-1.62ZM4 7.49c-1.87 0-3.04.99-3.5 3 .7-1.01 1.51-1.38 2.45-1.13 .53.14.91.55 1.33 1.01 .68.74 1.48 1.61 3.21 1.61 1.86 0 3.03-1 3.5-3.01 -.7 1-1.52 1.37-2.45 1.12 -.54-.15-.92-.56-1.34-1.02 -.69-.75-1.49-1.62-3.22-1.62Z"/></svg>
